assets/svg/shopping.svg

<?xml version="1.0" encoding="utf-8"?><!-- Uploaded to: SVG Repo, www.svgrepo.com, Generator: SVG Repo Mixer Tools -->
<svg width="800px" height="800px" viewBox="0 -0.5 25 25" fill="none" xmlns="http://www.w3.org/2000/svg">
<path d="M5.24542 8.91722C5.1997 8.50553 4.8289 8.20886 4.41722 8.25458C4.00553 8.3003 3.70886 8.6711 3.75458 9.08278L5.24542 8.91722ZM5.413 17.221L4.66758 17.3038L4.66759 17.3039L5.413 17.221ZM7.4 19L7.39972 19.75H7.4V19ZM17.6 19L17.6001 18.25H17.6V19ZM19.588 17.221L20.3334 17.3039L20.3334 17.3037L19.588 17.221ZM21.2454 9.08269C21.2911 8.67101 20.9944 8.30024 20.5827 8.25457C20.171 8.2089 19.8002 8.50562 19.7546 8.91731L21.2454 9.08269ZM2.5 8.25C2.08579 8.25 1.75 8.58579 1.75 9C1.75 9.41421 2.08579 9.75 2.5 9.75V8.25ZM22.5 9.75C22.9142 9.75 23.25 9.41421 23.25 9C23.25 8.58579 22.9142 8.25 22.5 8.25V9.75ZM4.82918 8.66459C4.64394 9.03507 4.79411 9.48558 5.16459 9.67082C5.53507 9.85606 5.98558 9.70589 6.17082 9.33541L4.82918 8.66459ZM8.17082 5.33541C8.35606 4.96493 8.20589 4.51442 7.83541 4.32918C7.46493 4.14394 7.01442 4.29411 6.82918 4.66459L8.17082 5.33541ZM18.8292 9.33541C19.0144 9.70589 19.4649 9.85606 19.8354 9.67082C20.2059 9.48558 20.3561 9.03507 20.1708 8.66459L18.8292 9.33541ZM18.1708 4.66459C17.9856 4.29411 17.5351 4.14394 17.1646 4.32918C16.7941 4.51442 16.6439 4.96493 16.8292 5.33541L18.1708 4.66459ZM8.75 15C8.75 15.4142 9.08579 15.75 9.5 15.75C9.91421 15.75 10.25 15.4142 10.25 15H8.75ZM10.25 13C10.25 12.5858 9.91421 12.25 9.5 12.25C9.08579 12.25 8.75 12.5858 8.75 13H10.25ZM11.75 15C11.75 15.4142 12.0858 15.75 12.5 15.75C12.9142 15.75 13.25 15.4142 13.25 15H11.75ZM13.25 13C13.25 12.5858 12.9142 12.25 12.5 12.25C12.0858 12.25 11.75 12.5858 11.75 13H13.25ZM14.75 15C14.75 15.4142 15.0858 15.75 15.5 15.75C15.9142 15.75 16.25 15.4142 16.25 15H14.75ZM16.25 13C16.25 12.5858 15.9142 12.25 15.5 12.25C15.0858 12.25 14.75 12.5858 14.75 13H16.25ZM3.75458 9.08278L4.66758 17.3038L6.15842 17.1382L5.24542 8.91722L3.75458 9.08278ZM4.66759 17.3039C4.82238 18.6961 5.99892 19.7495 7.39972 19.75L7.40028 18.25C6.76356 18.2498 6.22877 17.771 6.15841 17.1381L4.66759 17.3039ZM7.4 19.75H17.6V18.25H7.4V19.75ZM17.5999 19.75C19.0012 19.7502 20.1786 18.6966 20.3334 17.3039L18.8426 17.1381C18.7722 17.7712 18.2371 18.2501 17.6001 18.25L17.5999 19.75ZM20.3334 17.3037L21.2454 9.08269L19.7546 8.91731L18.8426 17.1383L20.3334 17.3037ZM2.5 9.75H22.5V8.25H2.5V9.75ZM6.17082 9.33541L8.17082 5.33541L6.82918 4.66459L4.82918 8.66459L6.17082 9.33541ZM20.1708 8.66459L18.1708 4.66459L16.8292 5.33541L18.8292 9.33541L20.1708 8.66459ZM10.25 15V13H8.75V15H10.25ZM13.25 15V13H11.75V15H13.25ZM16.25 15V13H14.75V15H16.25Z" fill="#000000"/>
</svg>

<svg xmlns="http://www.w3.org/2000/svg" width="800" height="800" fill="none" viewBox="0 -0.5 25 25">
    <path fill="#000"
        d="M5.245 8.917a.75.75 0 1 0-1.49.166zm.168 8.304-.745.083zM7.4 19v.75zm10.2 0v-.75zm1.988-1.779.745.083zm1.657-8.138a.75.75 0 1 0-1.49-.166zM2.5 8.25a.75.75 0 0 0 0 1.5zm20 1.5a.75.75 0 0 0 0-1.5zM4.83 8.665a.75.75 0 0 0 1.34.67zm3.34-3.33a.75.75 0 0 0-1.34-.67zm10.66 4a.75.75 0 1 0 1.34-.67zm-.66-4.67a.75.75 0 1 0-1.34.67zM8.75 15a.75.75 0 0 0 1.5 0zm1.5-2a.75.75 0 0 0-1.5 0zm1.5 2a.75.75 0 0 0 1.5 0zm1.5-2a.75.75 0 0 0-1.5 0zm1.5 2a.75.75 0 0 0 1.5 0zm1.5-2a.75.75 0 0 0-1.5 0zM3.755 9.083l.913 8.22 1.49-.165-.913-8.22zm.913 8.22A2.75 2.75 0 0 0 7.4 19.75v-1.5a1.25 1.25 0 0 1-1.242-1.112zM7.4 19.75h10.2v-1.5H7.4zm10.2 0a2.75 2.75 0 0 0 2.733-2.446l-1.49-.166A1.25 1.25 0 0 1 17.6 18.25zm2.733-2.446.912-8.221-1.49-.166-.912 8.221zM2.5 9.75h20v-1.5h-20zm3.67-.415 2-4-1.34-.67-2 4zm14-.67-2-4-1.34.67 2 4zM10.25 15v-2h-1.5v2zm3 0v-2h-1.5v2zm3 0v-2h-1.5v2z" />
</svg>
